dist/svg/u1F478_u1F3FE.svg

<?xml version="1.0" encoding="UTF-8"?><svg id="Layer_1" xmlns="http://www.w3.org/2000/svg" viewBox="0 0 40 40"><g><g><path d="M5.49284,34.2142S3.74957,15.05317,13.01627,10.99207c0,0,2.54742-3.69191,8.23297-3.10121,5.68555,.59071,10.02749,4.96991,11.48185,8.93443,1.08342,2.95336,2.15502,9.20571,1.98578,16.45067-.01965,.84103-.47166,1.61204-1.19053,2.04901-1.56857,.95348-5.20343,2.17503-13.53235,2.17503-13.66008,0-14.50114-3.2858-14.50114-3.2858Z" style="fill:#333;"/><path d="M24.30111,20.27055c-5.01567-.73753-8.27821-4.0238-9.32261-5.22654-.14203-.16356-.40997-.09195-.44923,.12014-.2434,1.31501-1.10767,4.66048-3.85766,7.08545,0,0-.46125,.34879-.97805,1.03491-.75915,1.00788-1.05792,2.2915-.843,3.53026,.93929,5.41387,5.51408,9.52264,11.01907,9.52264,5.17426,0,9.52673-3.6303,10.81164-8.56185,.63917-3.66304-1.60343-6.80264-6.38018-7.50502Z" style="fill:#956759;"/><g><ellipse cx="16.49514" cy="24.44967" rx="1.24601" ry="1.49521"/><ellipse cx="23.07405" cy="24.44967" rx="1.24601" ry="1.49521"/></g><path d="M21.33592,31.01862c.27935,0,.4776,.26831,.40367,.5377-.2356,.85855-1.02163,1.48937-1.95499,1.48937s-1.71939-.63082-1.95499-1.48937c-.07393-.26939,.12432-.5377,.40367-.5377h3.10264Z" style="fill:#5c2f17;"/></g><path d="M8.93844,13.75565l-.11563-5.98803c-.00262-.13569,.1535-.21356,.26032-.12984l2.02636,1.58825c.0803,.06294,.19815,.03628,.24354-.0551l2.31672-4.66396c.05186-.10441,.19405-.12081,.26832-.03094l2.99333,3.62193c.07425,.08984,.2164,.07348,.26829-.03089l2.7237-5.47775c.05922-.1191,.22913-.1191,.28835,0l2.72376,5.47775c.05189,.10436,.19404,.12073,.26829,.03088l2.99327-3.62192c.07427-.08987,.21646-.07347,.26832,.03094l2.31672,4.66395c.04539,.09138,.16323,.11804,.24354,.0551l2.02636-1.58825c.10681-.08372,.26294-.00585,.26032,.12984l-.11599,6.00641c-.00583,.30216-.21024,.55998-.50551,.62438-2.1228,.463-10.81441,2.07031-21.22114-.00799-.30206-.06032-.52529-.3268-.53124-.63476Z" style="fill:#d69600;"/><ellipse cx="20.06755" cy="11.85585" rx="1.36602" ry="2.07343" style="fill:#f3f3f3;"/></g><rect x="0" width="40" height="40" style="fill:none;"/></svg>

<svg id="Layer_1" data-name="Layer 1" xmlns="http://www.w3.org/2000/svg" viewBox="0 0 40 40"><defs><style>.cls-1{fill:#333;}.cls-2{fill:#956759;}.cls-3{fill:#5c2f17;}.cls-4{fill:#d69600;}.cls-5{fill:#f3f3f3;}.cls-6{fill:none;}</style></defs><path class="cls-1" d="M5.493,34.214S3.75,15.053,13.016,10.992c0,0,2.548-3.692,8.233-3.1a14.347,14.347,0,0,1,11.482,8.934c1.084,2.954,2.155,9.206,1.986,16.451a2.47,2.47,0,0,1-1.191,2.049c-1.568.953-5.2,2.175-13.532,2.175C6.334,37.5,5.493,34.214,5.493,34.214Z"/><path class="cls-2" d="M24.3,20.271a15.864,15.864,0,0,1-9.322-5.227.259.259,0,0,0-.45.12,12.791,12.791,0,0,1-3.857,7.086,5.6,5.6,0,0,0-.978,1.035,4.569,4.569,0,0,0-.843,3.53A11.31,11.31,0,0,0,19.87,36.337a11.271,11.271,0,0,0,10.811-8.561C31.32,24.113,29.078,20.973,24.3,20.271Z"/><ellipse cx="16.495" cy="24.45" rx="1.246" ry="1.495"/><ellipse cx="23.074" cy="24.45" rx="1.246" ry="1.495"/><path class="cls-3" d="M21.336,31.019a.422.422,0,0,1,.4.537,2.028,2.028,0,0,1-3.91,0,.422.422,0,0,1,.4-.537Z"/><path class="cls-4" d="M8.938,13.756,8.823,7.768a.161.161,0,0,1,.26-.13l2.026,1.588a.162.162,0,0,0,.244-.055L13.67,4.507a.161.161,0,0,1,.268-.031L16.931,8.1a.162.162,0,0,0,.269-.031l2.723-5.478a.162.162,0,0,1,.289,0l2.723,5.478A.162.162,0,0,0,23.2,8.1L26.2,4.476a.161.161,0,0,1,.268.031l2.317,4.664a.162.162,0,0,0,.244.055l2.026-1.588a.161.161,0,0,1,.26.13L31.2,13.774a.644.644,0,0,1-.505.624A54.621,54.621,0,0,1,9.47,14.39.664.664,0,0,1,8.938,13.756Z"/><ellipse class="cls-5" cx="20.068" cy="11.856" rx="1.366" ry="2.073"/><rect class="cls-6" width="40" height="40"/></svg>
